en/_assets/wiki/svg/attachments.svg

<svg xmlns="http://www.w3.org/2000/svg" xmlns:xlink="http://www.w3.org/1999/xlink" width="14" height="16" class="yc-icon" fill="currentColor" stroke="none" aria-hidden="true"><svg viewBox="0 0 14 16" xmlns="http://www.w3.org/2000/svg"><path d="M1.83203 13.5742C3.41797 15.1602 5.98828 15.1602 7.57422 13.5742C9.05078 12.0977 11.457 9.69141 12.9336 8.21484C13.0703 8.07812 13.0703 7.88672 12.9336 7.75L12.4688 7.28516C12.332 7.14844 12.1406 7.14844 12.0039 7.28516C10.5273 8.76172 8.12109 11.168 6.64453 12.6445C5.57812 13.7109 3.82812 13.7109 2.76172 12.6445C1.69531 11.5781 1.69531 9.82812 2.76172 8.76172L8.91406 2.60938C9.625 1.89844 10.7734 1.89844 11.4844 2.60938C12.1953 3.32031 12.1953 4.46875 11.4844 5.17969L6.31641 10.3477C5.96094 10.7031 5.38672 10.7031 5.03125 10.3477C4.70312 10.0195 4.70312 9.44531 5.03125 9.08984L9.43359 4.71484C9.57031 4.57812 9.57031 4.38672 9.43359 4.25L8.96875 3.78516C8.83203 3.64844 8.64062 3.64844 8.50391 3.78516L4.12891 8.16016C3.25391 9.03516 3.25391 10.4297 4.12891 11.2773C4.97656 12.1523 6.37109 12.1523 7.21875 11.2773L12.4141 6.10938C13.6445 4.87891 13.6445 2.91016 12.4141 1.67969C11.1836 0.449219 9.21484 0.449219 7.98438 1.67969L1.83203 7.83203C0.246094 9.41797 0.246094 11.9883 1.83203 13.5742Z"></path></svg></svg>

<svg xmlns="http://www.w3.org/2000/svg" width="14" height="16" fill="currentColor" aria-hidden="true" class="yc-icon"><svg xmlns="http://www.w3.org/2000/svg" viewBox="0 0 14 16"><path d="M1.832 13.574a4.06 4.06 0 0 0 5.742 0l5.36-5.36a.315.315 0 0 0 0-.464l-.465-.465a.315.315 0 0 0-.465 0l-5.36 5.36a2.756 2.756 0 0 1-3.882 0 2.756 2.756 0 0 1 0-3.883l6.152-6.153c.711-.71 1.86-.71 2.57 0 .711.711.711 1.86 0 2.57l-5.168 5.169a.908.908 0 0 1-1.285 0c-.328-.329-.328-.903 0-1.258l4.403-4.375a.315.315 0 0 0 0-.465l-.465-.465a.315.315 0 0 0-.465 0L4.129 8.16c-.875.875-.875 2.27 0 3.117a2.147 2.147 0 0 0 3.09 0l5.195-5.168a3.12 3.12 0 0 0 0-4.43 3.12 3.12 0 0 0-4.43 0L1.832 7.833a4.06 4.06 0 0 0 0 5.742Z"/></svg></svg>
